src/images/partials/plus.svg

<svg fill="none" height="25" viewBox="0 0 25 25" width="25" xmlns="http://www.w3.org/2000/svg"><path d="m9.84011 2.88479 1.32449-.70407-.7044-1.324316-1.32444.704036zm.93919 1.76578 1.3245-.70407zm-4.47121.11168-.70435-1.32435-1.32452.70406.70437 1.32436zm.93916 1.76578 1.32449-.70406zm2.94675 5.54047.7342 1.308 1.2789-.7174-.6886-1.2947zm-5.47573 3.0719-.73421-1.308zm-1.74425.9786-.73421-1.3081-1.308201.734.734231 1.308zm1.95793 3.4881-1.30819.7339.73422 1.308 1.30818-.7339zm1.74425-.9786.73421 1.308zm5.3966-3.0276 1.3245-.704-.7205-1.3547-1.3382.7507zm2.9041 5.4604-1.3244.704zm.9392 1.7658-1.3245.704.7044 1.3243 1.3245-.704zm3.532-1.8775.7044 1.3243 1.3245-.704-.7044-1.3244zm-.9391-1.7658-1.3245.7041zm-2.9468-5.5405-.7342-1.308-1.2789.7175.6886 1.2946zm5.4757-3.0719.7342 1.308zm1.7442-.97853.7342 1.30803 1.3082-.7339-.7342-1.30805zm-1.9579-3.48808 1.3082-.73392-.7342-1.30802-1.3082.73391zm-1.7442.97855.7342 1.30803zm-5.3966 3.02756-1.3245.704.7205 1.3548 1.3382-.7508zm-5.16779-6.52204.93916 1.76578 2.64903-1.40814-.9392-1.76578zm-1.50317 2.49774 3.53206-1.87746-1.40874-2.6487-3.53202 1.87746zm1.5593-.26263-.93915-1.76579-2.649 1.40814.93916 1.76578zm2.94676 5.54043-2.94676-5.54043-2.64899 1.40813 2.94676 5.5404zm-6.06602 5.0841 5.47572-3.072-1.46841-2.6161-5.47573 3.072zm-1.74425.9785 1.74425-.9785-1.46842-2.6161-1.74425.9785zm2.5319 1.4461-1.95793-3.488-2.61636 1.4678 1.95792 3.4881zm-.29815-1.5526-1.74425.9785 1.46843 2.6161 1.74425-.9786zm5.39662-3.0276-5.39662 3.0276 1.46843 2.616 5.39659-3.0275zm4.9628 6.0643-2.9041-5.4603-2.649 1.4081 2.9042 5.4603zm.9392 1.7658-.9392-1.7658-2.6489 1.4081.9391 1.7658zm1.5032-2.4977-3.532 1.8774 1.4087 2.6487 3.532-1.8775zm-1.5593.2626.9391 1.7658 2.649-1.4082-.9391-1.7658zm-2.9468-5.5405 2.9468 5.5405 2.649-1.4082-2.9468-5.5404zm6.066-5.08402-5.4757 3.07192 1.4684 2.6161 5.4757-3.072zm1.7442-.97854-1.7442.97854 1.4684 2.61602 1.7442-.9785zm-2.5319-1.44613 1.9579 3.48809 2.6164-1.46785-1.9579-3.48808zm.2982 1.55266 1.7442-.97855-1.4684-2.61606-1.7443.97854zm-5.3966 3.02753 5.3966-3.02753-1.4685-2.61607-5.3965 3.02754zm-4.96283-6.06426 2.90413 5.46026 2.649-1.40809-2.9041-5.46031z" fill="#ad47bf"/></svg>

<svg width="25" height="25" viewBox="0 0 25 25" fill="none" xmlns="http://www.w3.org/2000/svg">
<path d="M9.84011 2.88479L11.1646 2.18072L10.4602 0.856404L9.13576 1.56044L9.84011 2.88479ZM10.7793 4.65057L12.1038 3.9465L10.7793 4.65057ZM6.30809 4.76225L5.60374 3.4379L4.27922 4.14196L4.98359 5.46632L6.30809 4.76225ZM7.24725 6.52803L8.57174 5.82397L7.24725 6.52803ZM10.194 12.0685L10.9282 13.3765L12.2071 12.6591L11.5185 11.3644L10.194 12.0685ZM4.71827 15.1404L3.98406 13.8324L3.98406 13.8324L4.71827 15.1404ZM2.97402 16.119L2.23981 14.8109L0.931609 15.5449L1.66584 16.8529L2.97402 16.119ZM4.93195 19.6071L3.62376 20.341L4.35798 21.649L5.66616 20.9151L4.93195 19.6071ZM6.6762 18.6285L7.41041 19.9365L7.41041 19.9365L6.6762 18.6285ZM12.0728 15.6009L13.3973 14.8969L12.6768 13.5422L11.3386 14.2929L12.0728 15.6009ZM14.9769 21.0613L13.6525 21.7653L14.9769 21.0613ZM15.9161 22.8271L14.5916 23.5311L15.296 24.8554L16.6205 24.1514L15.9161 22.8271ZM19.4481 20.9496L20.1525 22.2739L21.477 21.5699L20.7726 20.2455L19.4481 20.9496ZM18.509 19.1838L17.1845 19.8879L18.509 19.1838ZM15.5622 13.6433L14.828 12.3353L13.5491 13.0528L14.2377 14.3474L15.5622 13.6433ZM21.0379 10.5714L21.7721 11.8794L21.0379 10.5714ZM22.7821 9.59287L23.5163 10.9009L24.8245 10.167L24.0903 8.85895L22.7821 9.59287ZM20.8242 6.10479L22.1324 5.37087L21.3982 4.06285L20.09 4.79676L20.8242 6.10479ZM19.08 7.08334L19.8142 8.39137L19.08 7.08334ZM13.6834 10.1109L12.3589 10.8149L13.0794 12.1697L14.4176 11.4189L13.6834 10.1109ZM8.51561 3.58886L9.45477 5.35464L12.1038 3.9465L11.1646 2.18072L8.51561 3.58886ZM7.01244 6.0866L10.5445 4.20914L9.13576 1.56044L5.60374 3.4379L7.01244 6.0866ZM8.57174 5.82397L7.63259 4.05818L4.98359 5.46632L5.92275 7.2321L8.57174 5.82397ZM11.5185 11.3644L8.57174 5.82397L5.92275 7.2321L8.86951 12.7725L11.5185 11.3644ZM5.45248 16.4485L10.9282 13.3765L9.45979 10.7604L3.98406 13.8324L5.45248 16.4485ZM3.70823 17.427L5.45248 16.4485L3.98406 13.8324L2.23981 14.8109L3.70823 17.427ZM6.24013 18.8731L4.2822 15.3851L1.66584 16.8529L3.62376 20.341L6.24013 18.8731ZM5.94198 17.3205L4.19773 18.299L5.66616 20.9151L7.41041 19.9365L5.94198 17.3205ZM11.3386 14.2929L5.94198 17.3205L7.41041 19.9365L12.807 16.909L11.3386 14.2929ZM16.3014 20.3572L13.3973 14.8969L10.7483 16.305L13.6525 21.7653L16.3014 20.3572ZM17.2406 22.123L16.3014 20.3572L13.6525 21.7653L14.5916 23.5311L17.2406 22.123ZM18.7438 19.6253L15.2118 21.5027L16.6205 24.1514L20.1525 22.2739L18.7438 19.6253ZM17.1845 19.8879L18.1236 21.6537L20.7726 20.2455L19.8335 18.4797L17.1845 19.8879ZM14.2377 14.3474L17.1845 19.8879L19.8335 18.4797L16.8867 12.9393L14.2377 14.3474ZM20.3037 9.26338L14.828 12.3353L16.2964 14.9514L21.7721 11.8794L20.3037 9.26338ZM22.0479 8.28484L20.3037 9.26338L21.7721 11.8794L23.5163 10.9009L22.0479 8.28484ZM19.516 6.83871L21.4739 10.3268L24.0903 8.85895L22.1324 5.37087L19.516 6.83871ZM19.8142 8.39137L21.5584 7.41282L20.09 4.79676L18.3457 5.7753L19.8142 8.39137ZM14.4176 11.4189L19.8142 8.39137L18.3457 5.7753L12.9492 8.80284L14.4176 11.4189ZM9.45477 5.35464L12.3589 10.8149L15.0079 9.40681L12.1038 3.9465L9.45477 5.35464Z" fill="#AD47BF"/>
</svg>
